X:29
T:Vals fr{\aa}n Transtrand
R:vals
H:efter Omas Ludvig
A:Transtrand, Dalarna
Z:id:hn-vals-29
M:3/4
K:D
FA dF Ad | fd dA FA | GF Ec Ec | cd AG F2 |
FA dF Ad | fd dA FA | GF Ec Ec | d6 :|
|: GF EG BG | FD FA d2 | cB Ac e2 | ed df A2 |
GF EG BG | FD FA d2 | cB Ac ec | d6 :|
|: f4 eg | fd Ad cB | A4 GA/G/ | F4 gb | a4 ga/g/ |
fA Bc de | f4 f2 | dc ed cB | A4 {GA}G2 | F4 ef |
ga gf ec | A2 ^GA fe | d2 dc de | d6 :|
<end>
<start>
